src/standard/path.svg

<?xml version="1.0" encoding="UTF-8"?><svg id="uuid-fc90fd75-42ea-4b5b-86ac-acfbc7883373" xmlns="http://www.w3.org/2000/svg" viewBox="0 0 36 36"><title>Path icon - Black</title>
<desc>Path, process, line, end, squiggle, diagram, learning path</desc>
<metadata><?xpacket begin="﻿" id="W5M0MpCehiHzreSzNTczkc9d"?>
<x:xmpmeta xmlns:x="adobe:ns:meta/" x:xmptk="Adobe XMP Core 8.0-c001 1.000000, 0000/00/00-00:00:00        ">
   <rdf:RDF xmlns:rdf="http://www.w3.org/1999/02/22-rdf-syntax-ns#">
      <rdf:Description rdf:about=""
            xmlns:xmp="http://ns.adobe.com/xap/1.0/"
            xmlns:tiff="http://ns.adobe.com/tiff/1.0/"
            xmlns:dc="http://purl.org/dc/elements/1.1/">
         <xmp:rhcc-effective-on>2024-03-13T14:08:26.932Z</xmp:rhcc-effective-on>
         <xmp:rhcc-rights-restricted>no</xmp:rhcc-rights-restricted>
         <xmp:brand-content-subtype>Icon</xmp:brand-content-subtype>
         <xmp:rhcc-metadata-complete-moderator>pending</xmp:rhcc-metadata-complete-moderator>
         <xmp:rhcc-translation-id>TRA7223880a-4f30-4a62-92c1-6a814fe64547</xmp:rhcc-translation-id>
         <xmp:brand-content-type>Icon</xmp:brand-content-type>
         <xmp:CreateDate>2024-03-13T14:08:26.932Z</xmp:CreateDate>
         <xmp:rhcc-derivative-id>DER7223880a-4f30-4a62-92c1-6a814fe64547</xmp:rhcc-derivative-id>
         <xmp:rhcc-effective-on-set-on-upload>true</xmp:rhcc-effective-on-set-on-upload>
         <xmp:brand-logo-color>Black</xmp:brand-logo-color>
         <xmp:rhcc-metadata-complete-uploader>pending</xmp:rhcc-metadata-complete-uploader>
         <xmp:rhcc-file-last-modified>2024-03-13T14:08:37.515Z</xmp:rhcc-file-last-modified>
         <xmp:rhcc-audience>rhcc-audience:internal</xmp:rhcc-audience>
         <xmp:rhcc-notify-portal-subscribers-on-change>yes</xmp:rhcc-notify-portal-subscribers-on-change>
         <tiff:ImageLength>36</tiff:ImageLength>
         <tiff:ImageWidth>36</tiff:ImageWidth>
         <dc:format>image/svg+xml</dc:format>
         <dc:modified>2024-03-13T14:09:33.198Z</dc:modified>
         <dc:description>
            <rdf:Alt>
               <rdf:li xml:lang="x-default">Path, process, line, end, squiggle, diagram, learning path</rdf:li>
            </rdf:Alt>
         </dc:description>
         <dc:title>
            <rdf:Alt>
               <rdf:li xml:lang="x-default">Path icon - Black</rdf:li>
            </rdf:Alt>
         </dc:title>
      </rdf:Description>
   </rdf:RDF>
</x:xmpmeta>
                                                                                                    
                                                                                                    
                                                                                                    
                                                                                                    
                                                                                                    
                                                                                                    
                                                                                                    
                                                                                                    
                                                                                                    
                                                                                                    
                                                                                                    
                                                                                                    
                                                                                                    
                                                                                                    
                                                                                                    
                                                                                                    
                                                               
<?xpacket end="w"?></metadata>
<defs><style>.uuid-03742469-06bb-4a70-86b3-127f40b59685{stroke-width:0px;}</style></defs><path class="uuid-03742469-06bb-4a70-86b3-127f40b59685" d="M28,24.375c-1.785,0-3.2637,1.2992-3.5618,3h-14.4382c-2.4126,0-4.375-1.9629-4.375-4.375s1.9624-4.375,4.375-4.375h16c3.1016,0,5.625-2.5234,5.625-5.625s-2.5234-5.625-5.625-5.625h-14.4382c-.298-1.7008-1.7768-3-3.5618-3-1.999,0-3.625,1.626-3.625,3.625s1.626,3.625,3.625,3.625c1.785,0,3.2637-1.2992,3.5618-3h14.4382c2.4126,0,4.375,1.9629,4.375,4.375s-1.9624,4.375-4.375,4.375H10c-3.1016,0-5.625,2.5234-5.625,5.625s2.5234,5.625,5.625,5.625h14.4382c.298,1.7008,1.7768,3,3.5618,3,1.999,0,3.625-1.626,3.625-3.625s-1.626-3.625-3.625-3.625ZM8,10.375c-1.3096,0-2.375-1.0654-2.375-2.375s1.0654-2.375,2.375-2.375,2.375,1.0654,2.375,2.375-1.0654,2.375-2.375,2.375ZM28,30.375c-1.3096,0-2.375-1.0654-2.375-2.375s1.0654-2.375,2.375-2.375,2.375,1.0654,2.375,2.375-1.0654,2.375-2.375,2.375Z"/></svg>

<svg xmlns="http://www.w3.org/2000/svg" viewBox="0 0 36 36">
  <path d="M28 24.375a3.624 3.624 0 0 0-3.562 3H10c-2.413 0-4.375-1.963-4.375-4.375S7.587 18.625 10 18.625h16c3.102 0 5.625-2.523 5.625-5.625S29.102 7.375 26 7.375H11.562c-.298-1.7-1.777-3-3.562-3-1.999 0-3.625 1.626-3.625 3.625S6.001 11.625 8 11.625c1.785 0 3.264-1.3 3.562-3H26c2.413 0 4.375 1.963 4.375 4.375S28.413 17.375 26 17.375H10c-3.102 0-5.625 2.523-5.625 5.625S6.898 28.625 10 28.625h14.438c.298 1.7 1.777 3 3.562 3 1.999 0 3.625-1.626 3.625-3.625S29.999 24.375 28 24.375Zm-20-14C6.69 10.375 5.625 9.31 5.625 8S6.69 5.625 8 5.625 10.375 6.69 10.375 8 9.31 10.375 8 10.375Zm20 20c-1.31 0-2.375-1.065-2.375-2.375S26.69 25.625 28 25.625 30.375 26.69 30.375 28 29.31 30.375 28 30.375Z"/>
</svg>
